!!!!SEGMENT: pl-wn--sd-xvi-o-278_bazylik-cyprian--kancjonal-zamoyskich-psalm-cxxix-de-profundis-clamavi-z-glebokosci-grzechow-moich.krn
!!!cenid: 15xx:833
!!!COM: Bazylik, Cyprian
!!!COM-rismID:
!!!CDT: ~1535-~1600
!!!CNT: Polish
!!!GTL: Kancjonał Zamoyskich
!!!OTL: Psalm CXXIX De profundis clamavi/Z głębokości grzechów moich
!!!PDT: 1558
!!!AGN:
!!!SMS-siglum: PL-Wn
!!!SMS-shelfmark: SD XVI.O.278
!!!SMS-shelfwork: G
!!!SMS-variant:
!!!SMS-altvar:
!!!NIFC-rismSourceID: 990004247
!!!NIFC-islandoraID:
!!!URL-pdf-islandora:
!!!URL-scan: https://polona.pl/item/psalm-cxxix-de-profundis-clamaui-ad-te-domine-argumentum-w-thym-psalmie-duch-swiethy,MTE3MTYxNQ/4/#info:metadata @EN{Scan on Polona} @PL{Skany w portalu Polona}
!!!ONB-nifc: UWAGA: proszę zapisywać tylko teksty występujące bezpośrednio pod nutami
!!!AIN: 1 alto 1 bass 1 soprn 1 tenor
!!!key: e:phr
**kern	**text	**text	**kern	**text	**text	**kern	**text	**text	**kern	**text	**text
*part4	*part4	*part4	*part3	*part3	*part3	*part2	*part2	*part2	*part1	*part1	*part1
*staff4	*staff4	*staff4	*staff3	*staff3	*staff3	*staff2	*staff2	*staff2	*staff1	*staff1	*staff1
*I"BASS.	*	*	*I"TENOR.	*	*	*I"ALT.	*	*	*I"CANTVS.	*	*
*mI"Basso	*	*	*mI"Tenore	*	*	*mI"Alto	*	*	*mI"Soprano	*	*
*I'B	*	*	*I'T	*	*	*I'A	*	*	*I'S	*	*
*ICvox	*	*	*ICvox	*	*	*ICvox	*	*	*ICvox	*	*
*Ibass	*	*	*Itenor	*	*	*Ialto	*	*	*Isoprn	*	*
*clefF4	*	*	*clefC4	*	*	*clefC3	*	*	*clefC1	*	*
*	*	*	*mclefGv2	*	*	*mclefG2	*	*	*mclefG2	*	*
*k[]	*	*	*k[]	*	*	*k[]	*	*	*k[]	*	*
*e:phr	*	*	*e:phr	*	*	*e:phr	*	*	*e:phr	*	*
*M2/1	*	*	*M2/1	*	*	*M2/1	*	*	*M2/1	*	*
*met(C|)	*	*	*met(C|)	*	*	*met(C|)	*	*	*met(C|)	*	*
*mmet(c|)	*	*	*mmet(c|)	*	*	*mmet(c|)	*	*	*mmet(c|)	*	*
=1-	=1-	=1-	=1-	=1-	=1-	=1-	=1-	=1-	=1-	=1-	=1-
!	!LO:MO:mod=Z głę-	!	!	!LO:MO:mod=Z głę-	!	!	!LO:MO:mod=Z głę-	!	!	!LO:MO:mod=Z głę-	!
0E	Z Głę-	Wy-	0B	Z Głę-	Wy-	0e	Z Głę-	Wy-	0g	Z Głę-	Wy-
=2-	=2-	=2-	=2-	=2-	=2-	=2-	=2-	=2-	=2-	=2-	=2-
2.C/	-bo-	-ſłu-	1E	-bo-	-ſłu-	1e	-bo-	-ſłu-	1cc	-bo-	-ſłu-
!	!LO:MO:mod=.	!	!	!	!	!	!	!	!	!	!
4D/	-ko-	.	.	.	.	.	.	.	.	.	.
!	!LO:MO:mod=-ko	!LO:MO:mod=-chaj	!	!	!LO:MO:mod=-chaj	!	!	!	!	!	!
1E	-ſci	-chay	1B	-ko-	-chay	1e	-ko-	.	2b\	-ko-	.
!	!	!	!	!	!	!	!	!	!	!	!LO:MO:mod=-chaj
.	.	.	.	.	.	.	.	.	2g/	.	-chay-
=3-	=3-	=3-	=3-	=3-	=3-	=3-	=3-	=3-	=3-	=3-	=3-
!	!LO:MO:mod=-ści	!	!	!LO:MO:mod=-ści	!	!	!LO:MO:mod=-ści	!LO:MO:mod=-chaj	!	!LO:MO:mod=-ści	!
2AA/	grze-	mo-	1c	-ſci	mo-	1.e	-ſci	-chay	2a\	-ſci	.
!	!LO:MO:null:mod=grze-	!	!	!	!	!	!	!	!	!	!
1A	.	.	.	.	.	.	.	.	2.e/	grze-	-mo-
!	!	!	!	!	!LO:MO:mod=-je	!	!	!	!	!	!
.	.	.	1B	grze-	-ye	.	.	.	.	.	.
.	.	.	.	.	.	.	.	.	4f/	.	.
!	!	!LO:MO:mod=-je	!	!	!	!	!	!	!	!LO:MO:mod=-chów	!LO:MO:mod=-je
2G\	.	-ye	.	.	.	2.e\	grze-	.	2.g/	-chow	-ye
=4-	=4-	=4-	=4-	=4-	=4-	=4-	=4-	=4-	=4-	=4-	=4-
!	!LO:MO:mod=-chów	!	!	!LO:MO:mod=-chów	!	!	!	!	!	!	!
1E	-chow	wo-	1G	-chow	wo-	.	.	.	.	.	.
.	.	.	.	.	.	4d\	.	mo-	4f/	.	.
.	.	.	.	.	.	2.c\	.	.	1e	.	wo-
1F	.	.	1A	mo-	-ła-	.	.	.	.	.	.
!	!	!	!	!	!	!	!LO:MO:mod=-chów	!LO:MO:mod=-je	!	!	!
.	.	.	.	.	.	4B/	-chow	-ye	.	.	.
!	!	!	!	!	!	!	!LO:MO:null:mod=wo-	!	!	!	!
.	.	.	.	.	.	1A	.	.	2d/	.	.
=5-	=5-	=5-	=5-	=5-	=5-	=5-	=5-	=5-	=5-	=5-	=5-
!	!	!	!	!	!	!	!	!	!	!	!
*	*	*	*custos:B	*	*	*	*	*	*	*	*
!	!	!	!	!LO:MO:mod=-ich,	!LO:MO:mod=-nie,	!	!	!	!	!	!
1.E	mo-	-ła-	1B	-ych/	-nye/	.	.	.	2.e/	mo-	-ła-
!	!	!	!	!	!	!	!	!LO:MO:mod=.	!	!	!
.	.	.	.	.	.	4G/	.	wo-	.	.	.
!	!	!	!	!	!	!	!LO:MO:mod=.	!LO:MO:mod=.	!	!LO:MO:mod=.	!LO:MO:mod=.
.	.	.	.	.	.	4A/	mo-	-ła-	4f/	-ych/	-nie/
!	!	!	!	!	!	!LO:TX:t=P:problem:błędny kustosz	!	!	!	!	!
!	!	!	!	!	!	!	!	!	!LO:LB:g=original	!	!
!	!	!	!LO:LB:g=original	!	!	!	!	!	!	!	!
*	*	*	*	*	*	*custos:c	*	*	*custos:g	*	*
!	!	!	!	!	!	!	!LO:MO:mod=mo-	!LO:MO:mod=-ła-	!	!LO:MO:mod=-ich,	!LO:MO:mod=-nie,
.	.	.	2r	.	.	2B/	-ych/	-nie/	1g	wo-	po-
!	!LO:MO:mod=-ich,	!	!	!	!	!LO:LB:g=original	!LO:MO:mod=-ich	!LO:MO:mod=-nie,	!	!	!
2E\	-ych/	-nie,	2B\	Wo-	Po-	1e	wo-	po-	.	.	.
*custos:A	*	*	*	*	*	*	*	*	*	*	*
!LO:LB:g=original	!	!	!	!	!	!	!	!	!	!	!
=6-	=6-	=6-	=6-	=6-	=6-	=6-	=6-	=6-	=6-	=6-	=6-
!	!	!	!	!	!	!	!	!	!	!LO:MO:null:mod=wo-	!LO:MO:mod=Po-
1A	wo-	Po-	1c	-łam	-kła-	.	.	.	2a/	.	-kła-
!	!	!	!	!	!	!	!LO:MO:mod=wo-	!LO:MO:mod=Po-	!	!LO:MO:mod=.	!LO:MO:mod=-kła-
.	.	.	.	.	.	2f\	-łam	-kła-	1cc	-łam	-dam
!	!	!	!	!LO:MO:mod=k'to-	!	!	!LO:MO:mod=-łam	!LO:MO:mod=-kła-	!	!	!
1G	-łam	-kła-	1d	kto-	-dam	2.g\	kto-	-dam	.	.	.
!	!	!	!	!	!	!	!	!	!	!LO:MO:null:mod=-łam	!
.	.	.	.	.	.	.	.	.	2b\	.	.
.	.	.	.	.	.	4f\	.	.	.	.	.
=7-	=7-	=7-	=7-	=7-	=7-	=7-	=7-	=7-	=7-	=7-	=7-
!	!	!	!	!LO:MO:mod=-bie	!	!	!LO:MO:mod=k'to-	!LO:MO:null:mod=-dam	!	!LO:MO:mod=k'to-	!LO:MO:null:mod=-dam
2C/	.	-dam	1c	-bye	w to-	2e\	-bie	.	2cc\	kto-	.
!	!LO:MO:mod=k'to-	!	!	!	!	!	!LO:MO:null:mod=-bie	!	!	!	!
2.F\	kto-	.	.	.	.	2f\	.	w to-	2.a\	-bie	w to-
!	!	!	!	!	!LO:MO:mod=-bie	!	!	!	!	!	!
.	.	.	1A	mi-	-bye	2c/	.	.	.	.	.
4E/	.	.	.	.	.	.	.	.	4g/	.	.
2D/	-bie	w to-	.	.	.	2d\	mi-	-bie	2.f/	mi-	-bie
=8-	=8-	=8-	=8-	=8-	=8-	=8-	=8-	=8-	=8-	=8-	=8-
!	!	!LO:MO:mod=-bie	!	!	!	!	!	!	!	!	!
2E\	mi-	-bye	1G	-ły	u-	2B/	-ły	.	.	.	.
.	.	.	.	.	.	.	.	.	4e/	-ły	u-
2C/	-łi	u-	.	.	.	2c/	.	u-	1e	.	-fa-
1D	pa-	-fa-	1F	Pa-	-fa-	2A/	Pa-	-fa-	.	.	.
.	.	.	.	.	.	2B/	.	-nie.	2d/	pa-	-nie.
=9-	=9-	=9-	=9-	=9-	=9-	=9-	=9-	=9-	=9-	=9-	=9-
*yyM1/2	*	*	*yyM1/2	*	*	*yyM1/2	*	*	*yyM1/2	*	*
!	!	!	!LO:TX:b:t=Re.:mod=	!	!	!	!	!	!LO:TX:b:t=Re.:mod=	!	!
!	!	!	!	!	!	!LO:TX:b:t=Re.:mod=	!	!	!	!	!
2AA/	-nie/	-nie,	1E	-nie/	-nye.	2c/	-nye.	.	2e/	-nie.	.
!	!	!	!	!	!	!	!	!	!LO:LB:g=original	!	!
*custos:E	*	*	*custos:A	*	*	*custos:B	*	*	*custos:g	*	*
!LO:LB:g=original	!	!	!LO:LB:g=original	!	!	!LO:LB:g=original	!	!	!	!	!
=10:|!|:-	=10:|!|:-	=10:|!|:-	=10:|!|:-	=10:|!|:-	=10:|!|:-	=10:|!|:-	=10:|!|:-	=10:|!|:-	=10:|!|:-	=10:|!|:-	=10:|!|:-
*yyM2/1	*	*	*yyM2/1	*	*	*yyM2/1	*	*	*yyM2/1	*	*
2E\	Skłoń-	.	.	.	.	2B/	Skłoń	.	1g	Skłoń	.
2D/	.	.	2r	.	.	2d\	.	.	.	.	.
2F\	.	.	2A/	Skłoń	.	4c/	.	.	2f/	.	.
.	.	.	.	.	.	4d/	.	.	.	.	.
2.E\	-u-	.	1G	u-	.	2.e\	u-	.	2.g/	.	.
=11-	=11-	=11-	=11-	=11-	=11-	=11-	=11-	=11-	=11-	=11-	=11-
.	.	.	.	.	.	.	.	.	.	.	.
4D/	.	.	.	.	.	4f\	.	.	4f/	u-	.
!	!LO:MO:mod=-szy	!	!	!LO:MO:mod=-szy	!	!	!LO:MO:mod=-szy	!	!	!LO:MO:mod=-szy	!
2C/	-ſſy	.	1c	-ſſy	.	2g\	-ſſy	.	2e/	-ſſy	.
2F\	.	.	.	.	.	2f\	.	.	1a	mi-	.
!	!LO:MO:mod=mi-	!	!	!	!	!	!	!	!	!	!
2G\	my-	.	1B	mi-	.	1e	mi-	.	.	.	.
=12-	=12-	=12-	=12-	=12-	=12-	=12-	=12-	=12-	=12-	=12-	=12-
2E\	.	.	.	.	.	.	.	.	2g/	.	.
2F\	-ło-	.	2A\	-ło-	.	2c/	-ło-	.	2a\	-ło-	.
1G	.	.	1d	-ſyer-	.	2.g\	-ſier-	.	1b	-ſier-	.
.	.	.	.	.	.	4f\	.	.	.	.	.
=13-	=13-	=13-	=13-	=13-	=13-	=13-	=13-	=13-	=13-	=13-	=13-
2A\	-ſier-	.	2c\	-ne	.	4e\	-ne	.	1a	.	.
.	.	.	.	.	.	4d\	.	.	.	.	.
1E	-ne	.	1B	ſwo-	.	1e	ſwo-	.	.	.	.
!	!	!	!	!	!	!	!	!	!LO:SIC:s=2g#	!	!
.	.	.	.	.	.	.	.	.	2g/	-ne	.
*	*	*	*	*	*	*custos:c	*	*	*	*	*
!	!	!	!	!	!	!LO:LB:g=original	!	!	!	!	!
!	!	!	!	!LO:MO:mod=-je,	!	!	!LO:MO:mod=-je,	!	!	!	!
1.AA	ſwo-	.	1A	-ye/	.	1.c	-ye/	.	2.a\	ſwo-	.
*	*	*	*custos:c	*	*	*	*	*	*	*	*
!	!	!	!LO:LB:g=original	!	!	!	!	!	!	!	!
=14-	=14-	=14-	=14-	=14-	=14-	=14-	=14-	=14-	=14-	=14-	=14-
.	.	.	.	.	.	.	.	.	.	.	.
.	.	.	.	.	.	.	.	.	4g/	.	.
!	!	!	!	!	!	!	!	!	!	!LO:MO:mod=-je,	!
.	.	.	2r	.	.	.	.	.	2f/	-ye/	.
*	*	*	*	*	*	*	*	*	*custos:e	*	*
!	!LO:MO:mod=-je,	!	!	!	!	!	!LO:MO:mod=Pom-	!	!LO:LB:g=original	!	!
1A	-ye/	.	2c\	Pom-	.	2A/	pom-	.	4e/	Pom-	.
.	.	.	.	.	.	.	.	.	4f/	.	.
.	.	.	1B	-ni	.	1d	.	.	4g\	.	.
.	.	.	.	.	.	.	.	.	4a\	.	.
*custos:G	*	*	*	*	*	*	*	*	*	*	*
!LO:LB:g=original	!	!	!	!	!	!	!	!	!	!	!
=15-	=15-	=15-	=15-	=15-	=15-	=15-	=15-	=15-	=15-	=15-	=15-
2G\	Pom-	.	.	.	.	.	.	.	2b\	-mi	.
1A	-ni	.	1c	na	.	2c\	-ni	.	2.a\	na	.
.	.	.	.	.	.	2e\	na	.	.	.	.
.	.	.	.	.	.	.	.	.	4g/	.	.
1D	na	.	1d	o-	.	2d\	.	.	1f	o-	.
=16-	=16-	=16-	=16-	=16-	=16-	=16-	=16-	=16-	=16-	=16-	=16-
.	.	.	.	.	.	2A/	o-	.	.	.	.
!	!	!	!	!LO:MO:mod=-biet-	!	!	!	!	!	!	!
1E	.	.	1G	-byet-	.	1B	-biet-	.	2.e/	-bie-	.
.	.	.	.	.	.	.	.	.	4f/	-tni-	.
!	!LO:MO:mod=o-	!	!	!	!	!	!	!	!	!	!
2E\	ob-	.	2B\	-ni-	.	1e	-ni-	.	4g\	-ce	.
.	.	.	.	.	.	.	.	.	4a\	.	.
=17-	=17-	=17-	=17-	=17-	=17-	=17-	=17-	=17-	=17-	=17-	=17-
!	!LO:MO:mod=-biet-	!	!	!	!	!	!	!	!	!	!
2C/	-yet-	.	2c\	-ce	.	.	.	.	1g	two-	.
!	!LO:MO:mod=-ni-	!	!	!	!	!	!	!	!	!	!
1D	-ny-	.	1A	two-	.	1d	-ce	.	.	.	.
!	!	!	!	!	!	!	!	!	!LO:SIC:s=2f#	!	!
.	.	.	.	.	.	.	.	.	2f/	.	.
!	!	!	!	!LO:MO:mod=-je,	!	!	!	!	!	!LO:MO:mod=-je,	!
2E\	-ce	.	1G	-ye/	.	2B/	two-	.	2g\	-ie/	.
*	*	*	*custos:G	*	*	*	*	*	*custos:cc	*	*
!	!	!	!LO:LB:g=original	!	!	!	!	!	!LO:LB:g=original	!	!
=18-	=18-	=18-	=18-	=18-	=18-	=18-	=18-	=18-	=18-	=18-	=18-
2C/	.	.	.	.	.	2e\	.	.	1cc	Słyſz	.
!	!	!	!	!	!	!	!LO:MO:mod=-je,	!	!	!	!
1.C	two-	.	2r	.	.	1e	-ie.	.	.	.	.
.	.	.	2G/	Słyſz	.	.	.	.	4b\	.	.
.	.	.	.	.	.	.	.	.	4a\	.	.
.	.	.	1c	płacz-	.	1.e	.	.	2g/	.	.
=19-	=19-	=19-	=19-	=19-	=19-	=19-	=19-	=19-	=19-	=19-	=19-
!	!LO:MO:mod=-je,	!	!	!	!	!	!	!	!	!	!
2AA/	-ye/	.	.	.	.	.	.	.	1a	płacz-	.
!	!LO:MO:mod=Słysz	!	!	!	!	!	!	!	!	!	!
1E	ſłiſz	.	1B	-li-	.	.	.	.	.	.	.
!	!	!	!	!	!	!	!LO:MO:mod=Słysz	!	!	!	!
.	.	.	.	.	.	2e\	ſłyſz	.	2g/	.	.
*custos:AA	*	*	*	*	*	*custos:c	*	*	*	*	*
!LO:LB:g=original	!	!	!	!	!	!LO:LB:g=original	!	!	!	!	!
2.AA/	płacz-	.	1A	-we	.	2.c/	płacz-	.	2f/	-li-	.
=20-	=20-	=20-	=20-	=20-	=20-	=20-	=20-	=20-	=20-	=20-	=20-
.	.	.	.	.	.	.	.	.	2.e/	-we	.
4BB/	.	.	.	.	.	4B/	.	.	.	.	.
!	!	!	!	!LO:MO:mod=proś-	!	!	!	!	!	!	!
1C	.	.	1E	pro-	.	2.G/	-li-	.	.	.	.
.	.	.	.	.	.	.	.	.	4f/	.	.
!	!	!	!	!	!	!	!	!	!	!LO:MO:mod=proś-	!
.	.	.	.	.	.	.	.	.	2.g/	proź-	.
.	.	.	.	.	.	4A/	.	.	.	.	.
!	!LO:MO:mod=-li-	!	!	!LO:MO:mod=-by	!	!	!	!	!	!	!
2GG/	-ly-	.	1G	-źby	.	2B/	-we	.	.	.	.
.	.	.	.	.	.	.	.	.	4f/	.	.
=21-	=21-	=21-	=21-	=21-	=21-	=21-	=21-	=21-	=21-	=21-	=21-
!	!	!	!	!	!	!	!LO:MO:mod=proś-	!	!	!	!
2C/	-we	.	.	.	.	2c/	proź-	.	1e	-by	.
1D	.	.	1F	mo-	.	2A/	.	.	.	.	.
.	.	.	.	.	.	2B/	.	.	2d/	mo-	.
!	!LO:MO:mod=proś-	!	!	!LO:MO:mod=-je.	!	!	!	!	!	!LO:MO:mod=-je.	!
1.AA	proź-	.	[2E/l	-ye.	.	1c	-by	.	[2e/l	-ie.	.
=22-	=22-	=22-	=22-	=22-	=22-	=22-	=22-	=22-	=22-	=22-	=22-
.	.	.	0E_	.	.	.	.	.	0e_	.	.
.	.	.	.	.	.	2A/	mo-	.	.	.	.
2GG/	-by	.	.	.	.	2B/	.	.	.	.	.
!	!	!	!	!	!	!	!LO:MO:mod=-je.	!	!	!	!
1AA	mo-	.	.	.	.	1c	-ye.	.	.	.	.
=23-	=23-	=23-	=23-	=23-	=23-	=23-	=23-	=23-	=23-	=23-	=23-
.	.	.	0E]	.	.	.	.	.	0e]	.	.
!LO:TX:b:t=C.S.:mod=	!LO:MO:mod=-je.	!	!	!	!	!LO:TX:b:t=C.S.	!	!	!	!	!
1.EEl 1.El	-ye.	.	.	.	.	1.Bl	.	.	.	.	.
==	==	==	==	==	==	==	==	==	==	==	==
*-	*-	*-	*-	*-	*-	*-	*-	*-	*-	*-	*-
!!!system-decoration: [(s1,s2,s3,s4)]
!!LO:MO:ori
!!!RDF**kern: l = terminal long
!!LO:MO:end
!!!filter-modern: sic -sq | autostem -r | humtr -p | shed -e "s/^custos:/Xcustos:/I" | shed -e "s/-//B" | modori -m |
!!!ENC: Mateusz Solarz
!!!END: 2022-04-28
!!!ENC: Natalia Wrzos
!!!END: 2022-05-10
!!!ENC-modern: Leszek Kubiak
!!!END-modern: 2022-07-25
